app/assets/images/payment_icons/onlinebanktransfer.svg

<svg xmlns="http://www.w3.org/2000/svg" width="38" height="24" viewBox="0 0 38 24" fill="none" aria-labelledby="pi-onlinebanktransfer" role="img"><title id="pi-onlinebanktransfer">Online Banktransfer</title><rect width="38" height="24" fill="#CC0066"/><path d="M25.028 15.802H11.859C11.569 15.802 11.334 16.0371 11.334 16.327V16.386C11.334 16.676 11.569 16.911 11.859 16.911H25.028C25.3179 16.911 25.553 16.676 25.553 16.386V16.327C25.553 16.0371 25.3179 15.802 25.028 15.802Z" fill="white"/><path d="M25.524 17.713H11.362C11.0721 17.713 10.837 17.8861 10.837 18.0995C10.837 18.313 11.0721 18.486 11.362 18.486H25.524C25.814 18.486 26.049 18.313 26.049 18.0995C26.049 17.8861 25.814 17.713 25.524 17.713Z" fill="white"/><path d="M14.771 8.11798H13.241C12.9511 8.11798 12.716 8.34385 12.716 8.62248C12.716 8.90111 12.9511 9.12698 13.241 9.12698H14.771C15.061 9.12698 15.296 8.90111 15.296 8.62248C15.296 8.34385 15.061 8.11798 14.771 8.11798Z" fill="white"/><path d="M14.771 13.982H13.241C12.9511 13.982 12.716 14.2079 12.716 14.4865C12.716 14.7651 12.9511 14.991 13.241 14.991H14.771C15.061 14.991 15.296 14.7651 15.296 14.4865C15.296 14.2079 15.061 13.982 14.771 13.982Z" fill="white"/><path d="M13.183 8.11798H14.829V14.991H13.183V8.11798Z" fill="white"/><path d="M19.198 8.11798H17.668C17.3781 8.11798 17.143 8.34385 17.143 8.62248C17.143 8.90111 17.3781 9.12698 17.668 9.12698H19.198C19.488 9.12698 19.723 8.90111 19.723 8.62248C19.723 8.34385 19.488 8.11798 19.198 8.11798Z" fill="white"/><path d="M19.198 13.982H17.668C17.3781 13.982 17.143 14.2079 17.143 14.4865C17.143 14.7651 17.3781 14.991 17.668 14.991H19.198C19.488 14.991 19.723 14.7651 19.723 14.4865C19.723 14.2079 19.488 13.982 19.198 13.982Z" fill="white"/><path d="M17.61 8.11798H19.256V14.991H17.61V8.11798Z" fill="white"/><path d="M23.626 8.11798H22.096C21.806 8.11798 21.571 8.34385 21.571 8.62248C21.571 8.90111 21.806 9.12698 22.096 9.12698H23.626C23.9159 9.12698 24.151 8.90111 24.151 8.62248C24.151 8.34385 23.9159 8.11798 23.626 8.11798Z" fill="white"/><path d="M23.626 13.982H22.096C21.806 13.982 21.571 14.2079 21.571 14.4865C21.571 14.7651 21.806 14.991 22.096 14.991H23.626C23.9159 14.991 24.151 14.7651 24.151 14.4865C24.151 14.2079 23.9159 13.982 23.626 13.982Z" fill="white"/><path d="M22.038 8.11802H23.684V14.991H22.038V8.11802ZM18.387 4.27702C18.4232 4.26207 18.4638 4.26207 18.5 4.27702L25.244 7.08602C25.394 7.14802 25.349 7.37002 25.188 7.37002H11.699C11.537 7.37002 11.493 7.14802 11.642 7.08602L18.387 4.27702Z" fill="white"/><path d="M18.608 14.543V10.476C18.608 10.392 18.668 10.32 18.75 10.304L22.787 9.51301C22.8088 9.50885 22.8312 9.50885 22.853 9.51301L27.105 10.305C27.1453 10.3123 27.1819 10.3335 27.2082 10.3649C27.2345 10.3963 27.2489 10.436 27.249 10.477V14.528L27.246 14.558C26.594 18.301 24.11 19.928 22.885 20.299C22.8426 20.3117 22.7969 20.307 22.758 20.286C19.715 18.681 18.723 15.794 18.608 14.543ZM18.608 14.543H18.871V14.531M18.608 14.543L18.87 14.519L18.871 14.531M18.871 14.531V10.548ZM18.871 10.548L22.821 9.77401ZM18.871 10.548V10.476C18.871 10.518 18.841 10.554 18.801 10.562L18.871 10.548ZM22.847 20.035C22.834 20.0391 22.821 20.0431 22.808 20.047C22.8322 20.0394 22.8584 20.0415 22.881 20.053C22.8697 20.047 22.8583 20.041 22.847 20.035ZM26.985 14.52V14.528C26.985 14.523 26.985 14.518 26.987 14.513L26.985 14.52ZM26.985 14.52V10.55ZM26.985 10.55L27.057 10.563C27.0369 10.5593 27.0187 10.5487 27.0055 10.533C26.9924 10.5173 26.9851 10.4975 26.985 10.477V10.55ZM26.985 10.55L22.821 9.77401ZM22.837 9.77101C22.8264 9.77297 22.8156 9.77297 22.805 9.77101H22.837Z" fill="black"/><path d="M19.263 14.533V11.106C19.263 11.036 19.313 10.975 19.383 10.961L22.784 10.295C22.8025 10.2914 22.8215 10.2914 22.84 10.295L26.423 10.962C26.493 10.975 26.543 11.036 26.543 11.108V14.521C26.5434 14.5293 26.543 14.5377 26.542 14.546C25.992 17.7 23.899 19.07 22.867 19.383C22.8494 19.3884 22.8309 19.3904 22.8125 19.3886C22.7941 19.3869 22.7763 19.3816 22.76 19.373C20.196 18.02 19.36 15.587 19.263 14.533ZM19.263 14.533H19.485V14.523M19.263 14.533L19.484 14.513L19.485 14.523M19.485 14.523V11.167ZM19.485 11.167L22.813 10.515ZM19.485 11.167V11.107C19.4848 11.1241 19.4788 11.1406 19.4679 11.1537C19.4569 11.1668 19.4418 11.1757 19.425 11.179L19.485 11.167ZM22.835 19.161C22.8244 19.1644 22.8137 19.1677 22.803 19.171C22.8229 19.1649 22.8444 19.1667 22.863 19.176C22.8537 19.171 22.8443 19.166 22.835 19.161ZM26.322 14.514V14.521L26.323 14.508L26.322 14.514ZM26.322 14.514V11.17ZM26.322 11.17L26.382 11.181C26.3652 11.1777 26.3501 11.1688 26.3391 11.1557C26.3282 11.1426 26.3222 11.1261 26.322 11.109V11.17ZM26.322 11.17L22.813 10.515ZM22.813 10.515L22.827 10.514C22.8178 10.5158 22.8082 10.5158 22.799 10.514L22.813 10.515Z" fill="white"/><path fill-rule="evenodd" clip-rule="evenodd" d="M22.729 11.459L22.691 11.452C22.6728 11.4485 22.6542 11.4485 22.636 11.452L20.246 11.92C20.2125 11.9267 20.1823 11.9448 20.1606 11.9712C20.1389 11.9977 20.127 12.0308 20.127 12.065V14.626C20.197 15.378 20.791 17.251 22.612 18.221C22.6283 18.2298 22.6461 18.2352 22.6645 18.2369C22.6829 18.2386 22.7014 18.2366 22.719 18.231L22.729 18.228V11.459Z" fill="black"/></svg>

<svg viewBox="0 0 38 24" width="38" height="24" xmlns="http://www.w3.org/2000/svg" aria-labelledby="pi-onlinebanktransfer" role="img"><title id="pi-onlinebanktransfer">Online Banktransfer</title><path opacity=".07" d="M35-.089H3c-1.7 0-3 1.3-3 3v18c0 1.7 1.4 3 3 3h32c1.7 0 3-1.3 3-3v-18c0-1.7-1.4-3-3-3z"/><path d="M35 .911c1.1 0 2 .9 2 2v18c0 1.1-.9 2-2 2H3c-1.1 0-2-.9-2-2v-18c0-1.1.9-2 2-2h32z" fill="#c06"/><rect x="11.334" y="15.802" width="14.219" height="1.109" rx=".525" fill="#fff"/><rect x="10.837" y="17.713" width="15.212" height=".773" rx=".525" fill="#fff"/><rect x="12.716" y="8.118" width="2.58" height="1.009" rx=".525" fill="#fff"/><rect x="12.716" y="13.982" width="2.58" height="1.009" rx=".525" fill="#fff"/><path fill="#fff" d="M13.183 8.118h1.646v6.873h-1.646z"/><rect x="17.143" y="8.118" width="2.58" height="1.009" rx=".525" fill="#fff"/><rect x="17.143" y="13.982" width="2.58" height="1.009" rx=".525" fill="#fff"/><path fill="#fff" d="M17.61 8.118h1.646v6.873H17.61z"/><rect x="21.571" y="8.118" width="2.58" height="1.009" rx=".525" fill="#fff"/><rect x="21.571" y="13.982" width="2.58" height="1.009" rx=".525" fill="#fff"/><path fill="#fff" d="M22.038 8.118h1.646v6.873h-1.646zM18.387 4.277a.148.148 0 01.113 0l6.744 2.809c.15.062.105.284-.056.284H11.699c-.162 0-.206-.222-.057-.284l6.745-2.809z"/><path d="M18.608 14.543v-4.067c0-.084.06-.156.142-.172l4.037-.791a.176.176 0 01.066 0l4.252.792a.175.175 0 01.144.172v4.051l-.003.03c-.652 3.743-3.136 5.37-4.361 5.741a.167.167 0 01-.127-.013c-3.043-1.605-4.035-4.492-4.15-5.743zm0 0h.263v-.012m-.263.012l.262-.024.001.012m0 0v-3.983m0 0l3.95-.774m-3.95.774v-.072c0 .042-.03.078-.07.086l.07-.014zm3.976 9.487a2.998 2.998 0 01-.039.012.097.097 0 01.073.006 9.858 9.858 0 01-.034-.018zm4.138-5.515v.008c0-.005 0-.01.002-.015l-.002.007zm0 0v-3.97m0 0l.072.013a.088.088 0 01-.072-.086v.073zm0 0l-4.164-.776m.016-.003a.088.088 0 01-.032 0h.032z"/><path d="M19.263 14.533v-3.427c0-.07.05-.131.12-.145l3.401-.666a.148.148 0 01.056 0l3.583.667c.07.013.12.074.12.146v3.413a.15.15 0 01-.001.025c-.55 3.154-2.643 4.524-3.675 4.837a.14.14 0 01-.107-.01c-2.564-1.353-3.4-3.786-3.497-4.84zm0 0h.222v-.01m-.222.01l.221-.02.001.01m0 0v-3.356m0 0l3.328-.652m-3.328.652v-.06a.074.074 0 01-.06.072l.06-.012zm3.35 7.994a2.298 2.298 0 01-.032.01.081.081 0 01.06.005 6.997 6.997 0 01-.028-.015zm3.487-4.647v.007l.001-.013-.001.006zm0 0V11.17m0 0l.06.011a.074.074 0 01-.06-.072v.061zm0 0l-3.509-.654m0 0l.014-.002a.074.074 0 01-.028 0l.014.002z" fill="#fff"/><path fill-rule="evenodd" clip-rule="evenodd" d="M22.729 11.459l-.038-.007a.148.148 0 00-.055 0l-2.39.468a.148.148 0 00-.119.145v2.561c.07.752.664 2.625 2.485 3.595a.137.137 0 00.107.01l.01-.003v-6.77z"/></svg>
